automatic/svg/Sinclair - ZX Spectrum.svg

<?xml version="1.0" encoding="UTF-8" standalone="no"?>
<svg
   xmlns:dc="http://purl.org/dc/elements/1.1/"
   xmlns:cc="http://creativecommons.org/ns#"
   xmlns:rdf="http://www.w3.org/1999/02/22-rdf-syntax-ns#"
   xmlns:svg="http://www.w3.org/2000/svg"
   xmlns="http://www.w3.org/2000/svg"
   viewBox="0 0 320 202.66665"
   height="202.66666"
   width="320"
   xml:space="preserve"
   id="svg2"
   version="1.1"><metadata
     id="metadata8"><rdf:RDF><cc:Work
         rdf:about=""><dc:format>image/svg+xml</dc:format><dc:type
           rdf:resource="http://purl.org/dc/dcmitype/StillImage" /></cc:Work></rdf:RDF></metadata><defs
     id="defs6"><clipPath
       id="clipPath18"
       clipPathUnits="userSpaceOnUse"><path
         id="path16"
         d="M 0,256 H 256 V 0 H 0 Z" /></clipPath></defs><g
     transform="matrix(1.3333333,0,0,-1.3333333,-10.666666,271.99999)"
     id="g10"><g
       id="g12"><g
         clip-path="url(#clipPath18)"
         id="g14"><g
           transform="translate(244,56)"
           id="g20"><path
             id="path22"
             style="fill:#f2f2f2;fill-opacity:1;fill-rule:nonzero;stroke:none"
             d="m 0,0 h -232 v 91 c 0,2.761 2.239,5 5,5 H -5 c 2.762,0 5,-2.239 5,-5 z M 0,144 V 98.478 C -1.432,99.438 -3.151,100 -5,100 h -222 c -1.849,0 -3.569,-0.562 -5,-1.522 V 144 Z m 0,4 h -232 -4 V 144 91 0 -4 h 4 232 4 v 4 91 53 4 z" /></g><path
           id="path24"
           style="fill:#f2f2f2;fill-opacity:1;fill-rule:nonzero;stroke:none"
           d="m 232,92 h -16 v 12 h 16 z m 0,-20 H 202.321 V 84 H 232 Z m -36,32 h 16 V 92 h -16 z m 2.081,-32 H 182.56 v 12 h 15.521 z M 176,104 h 16 V 92 h -16 z m 2.321,-32 H 162.8 v 12 h 15.521 z M 156,104 h 16 V 92 h -16 z m 2.561,-32 h -15.52 v 12 h 15.52 z M 136,104 h 16 V 92 h -16 z m 2.801,-32 H 123.28 v 12 h 15.521 z M 116,104 h 16 V 92 h -16 z m 3.041,-32 h -15.52 v 12 h 15.52 z M 96,104 h 16 V 92 H 96 Z M 99.28,72 H 83.76 V 84 H 99.28 Z M 76,104 H 92 V 92 H 76 Z M 79.521,72 H 64 V 84 H 79.521 Z M 56,104 H 72 V 92 H 56 Z M 59.76,72 H 44.239 V 84 H 59.76 Z M 36,104 H 52 V 92 H 36 Z M 40,72 H 24.24 V 84 H 40 Z M 20,144 H 36 V 132 H 20 Z M 48,112 H 32 v 12 h 16 z m -8,32 H 56 V 132 H 40 Z M 68,112 H 52 v 12 h 16 z m -8,32 H 76 V 132 H 60 Z M 88,112 H 72 v 12 h 16 z m -8,32 H 96 V 132 H 80 Z m 28,-32 H 92 v 12 h 16 z m -8,32 h 16 v -12 h -16 z m 28,-32 h -16 v 12 h 16 z m -8,32 h 16 v -12 h -16 z m 28,-32 h -16 v 12 h 16 z m -8,32 h 16 v -12 h -16 z m 28,-32 h -16 v 12 h 16 z m -8,32 h 16 v -12 h -16 z m 28,-32 h -16 v 12 h 16 z m -8,32 h 16 v -12 h -16 z m 28,-32 h -16 v 12 h 16 z m -8,32 h 16 v -12 h -16 z m 28,-32 h -16 v 12 h 16 z m 4,0 v 12 4 h -4 -8 v 4 12 4 h -4 -16 -4 -16 -4 -16 -4 -16 -4 -16 -4 H 100 96 80 76 60 56 40 36 20 16 v -4 -12 -4 h 4 8 v -4 -12 -4 h 4 v -4 -12 -4 h -7.76 -4 V 84 72 68 h 4 H 40 40.24 44 44.24 59.76 60 63.76 64 h 15.521 0.239 3.761 0.239 15.52 0.241 3.759 0.241 15.52 0.239 3.761 0.239 15.521 0.24 3.76 0.24 15.52 0.24 3.76 0.24 15.52 0.24 3.76 0.24 15.52 0.24 3.76 0.24 29.679 4 v 4 12 4 4 12 4 h -4 z" /></g></g></g></svg>

<?xml version="1.0" encoding="UTF-8" standalone="no"?>
<svg
   xmlns:dc="http://purl.org/dc/elements/1.1/"
   xmlns:cc="http://creativecommons.org/ns#"
   xmlns:rdf="http://www.w3.org/1999/02/22-rdf-syntax-ns#"
   xmlns:svg="http://www.w3.org/2000/svg"
   xmlns="http://www.w3.org/2000/svg"
   viewBox="0 0 320 320"
   height="320"
   width="320"
   xml:space="preserve"
   version="1.1"
   id="svg2"><metadata
     id="metadata8"><rdf:RDF><cc:Work
         rdf:about=""><dc:format>image/svg+xml</dc:format><dc:type
           rdf:resource="http://purl.org/dc/dcmitype/StillImage" /></cc:Work></rdf:RDF></metadata><defs
     id="defs6"><clipPath
       id="clipPath16"
       clipPathUnits="userSpaceOnUse"><path
         id="path18"
         d="M 0,256 256,256 256,0 0,0 0,256 Z" /></clipPath></defs><g
     transform="matrix(1.25,0,0,-1.25,0,320)"
     id="g10"><g
       id="g12"><g
         clip-path="url(#clipPath16)"
         id="g14"><g
           transform="translate(244,56)"
           id="g20"><path
             id="path22"
             style="fill:#f2f2f2;fill-opacity:1;fill-rule:nonzero;stroke:none"
             d="m 0,0 -232,0 0,91 c 0,2.761 2.239,5 5,5 l 222,0 c 2.762,0 5,-2.239 5,-5 L 0,0 Z M 0,144 0,98.478 C -1.432,99.438 -3.151,100 -5,100 l -222,0 c -1.849,0 -3.569,-0.562 -5,-1.522 l 0,45.522 232,0 z m 0,4 -232,0 -4,0 0,-4 0,-53 0,-91 0,-4 4,0 232,0 4,0 0,4 0,91 0,53 0,4 -4,0 z" /></g><path
           id="path24"
           style="fill:#f2f2f2;fill-opacity:1;fill-rule:nonzero;stroke:none"
           d="m 232,92 -16,0 0,12 16,0 0,-12 z m 0,-20 -29.679,0 0,12 29.679,0 0,-12 z m -36,32 16,0 0,-12 -16,0 0,12 z m 2.081,-32 -15.521,0 0,12 15.521,0 0,-12 z M 176,104 l 16,0 0,-12 -16,0 0,12 z m 2.321,-32 -15.521,0 0,12 15.521,0 0,-12 z M 156,104 l 16,0 0,-12 -16,0 0,12 z m 2.561,-32 -15.52,0 0,12 15.52,0 0,-12 z M 136,104 l 16,0 0,-12 -16,0 0,12 z m 2.801,-32 -15.521,0 0,12 15.521,0 0,-12 z M 116,104 l 16,0 0,-12 -16,0 0,12 z m 3.041,-32 -15.52,0 0,12 15.52,0 0,-12 z M 96,104 l 16,0 0,-12 -16,0 0,12 z m 3.28,-32 -15.52,0 0,12 15.52,0 0,-12 z M 76,104 l 16,0 0,-12 -16,0 0,12 z M 79.521,72 64,72 l 0,12 15.521,0 0,-12 z M 56,104 l 16,0 0,-12 -16,0 0,12 z m 3.76,-32 -15.521,0 0,12 15.521,0 0,-12 z M 36,104 l 16,0 0,-12 -16,0 0,12 z m 4,-32 -15.76,0 0,12 15.76,0 0,-12 z m -20,72 16,0 0,-12 -16,0 0,12 z m 28,-32 -16,0 0,12 16,0 0,-12 z m -8,32 16,0 0,-12 -16,0 0,12 z m 28,-32 -16,0 0,12 16,0 0,-12 z m -8,32 16,0 0,-12 -16,0 0,12 z m 28,-32 -16,0 0,12 16,0 0,-12 z m -8,32 16,0 0,-12 -16,0 0,12 z m 28,-32 -16,0 0,12 16,0 0,-12 z m -8,32 16,0 0,-12 -16,0 0,12 z m 28,-32 -16,0 0,12 16,0 0,-12 z m -8,32 16,0 0,-12 -16,0 0,12 z m 28,-32 -16,0 0,12 16,0 0,-12 z m -8,32 16,0 0,-12 -16,0 0,12 z m 28,-32 -16,0 0,12 16,0 0,-12 z m -8,32 16,0 0,-12 -16,0 0,12 z m 28,-32 -16,0 0,12 16,0 0,-12 z m -8,32 16,0 0,-12 -16,0 0,12 z m 28,-32 -16,0 0,12 16,0 0,-12 z m -8,32 16,0 0,-12 -16,0 0,12 z m 28,-32 -16,0 0,12 16,0 0,-12 z m 4,0 0,12 0,4 -4,0 -8,0 0,4 0,12 0,4 -4,0 -16,0 -4,0 -16,0 -4,0 -16,0 -4,0 -16,0 -4,0 -16,0 -4,0 -16,0 -4,0 -16,0 -4,0 -16,0 -4,0 -16,0 -4,0 -16,0 -4,0 0,-4 0,-12 0,-4 4,0 8,0 0,-4 0,-12 0,-4 4,0 0,-4 0,-12 0,-4 -7.76,0 -4,0 0,-4 0,-12 0,-4 4,0 15.76,0 0.24,0 3.76,0 0.24,0 15.52,0 0.24,0 3.76,0 0.24,0 15.521,0 0.239,0 3.761,0 0.239,0 15.52,0 0.241,0 3.759,0 0.241,0 15.52,0 0.239,0 3.761,0 0.239,0 15.521,0 0.24,0 3.76,0 0.24,0 15.52,0 0.24,0 3.76,0 0.24,0 15.52,0 0.24,0 3.76,0 0.24,0 15.52,0 0.24,0 3.76,0 0.24,0 29.679,0 4,0 0,4 0,12 0,4 0,4 0,12 0,4 -4,0 0,4 z" /></g></g></g></svg>
